X:1
T:Title
%%score ( 1 2 ) { 3 | 4 }
L:1/8
Q:1/4=110
M:4/4
K:G
V:1 treble nm="Grand Piano, Soprano"
V:2 treble 
V:3 bass nm="Choir Pad, Rio Hondo, 86.86.88.88"
V:4 bass 
V:1
 [Gd]2 [Gd]2 [GB]2 [DG]2 | [Ec]2 [DB]2- [DB][CA] [B,G]2 | .G2 z2 z4 | [CA]2 [B,G]6 | %4
w: By~Anonymous,~1916 * * *||||
 [B,D]2 [B,D]2 [B,D]2 [B,D]2 | [B,D]2 [GB]2- [GB][FA] G2 | [=Fd]2 [Ed]2- [Ed][Ec] [DB]2 | %7
w: |||
 [CA]2 [B,G]6 | z2 z D [DG][GB] [Gd]2- | [Gd][GB] [Fc]2 [FA]2 [GB]2 | z2 z D [DG][GB] [Gd]2- | %11
w: ||||
 [Gd][Gd]ed cA G2 | G2 [Gd]2 G2 [Ge]2 | z2 z D [DG][GB] [Gd]2- | [Gd][Gd]ed cA G2- | %15
w: ||||
 G2[Q:1/4=97] [GB]2 [GB]2 [GB]2- | [GB]6 z2 |] %17
w: ||
V:2
 x8 | x8 | D-[DF] [CE]2 [Ec]2 [DB]2 | x8 | x8 | x8 | x8 | x8 | x8 | x8 | x8 | z2 F2 F2 z2 | x8 | %13
 x8 | z2 F2 F2 z2 | x8 | x8 |] %17
V:3
 B,2 B,2 D2 B,2 | G,2 G,2- G,F, G,2 | G,2 G,2 G,2 G,2 | F,2 G,6 | G,2 G,2 G,2 G,2 | %5
 G,2[K:treble] D2- DC B,2 | G,2[K:bass] G,2- G,G, G,2 | F,2 G,6 | D,2 B,2 B,2 B,2- | %9
 B,B, A,2 C2 B,2 | D,2 B,2 B,2 B,2- | B,B, A,2 C2 B,2 | G,2 B,2 G,2 C2 | D,2 B,2 B,2 B,2- | %14
 B,B, A,2[K:treble] C2 B,2- | B,2 D2 D2 D2- | D6 z2 |] %17
V:4
 G,2 G,2 G,2 G,2 | C,2 D,2- D,D, G,,2 | B,,2 C,2 A,,2 D,2 | D,2 G,,6 | z8 | z2 G,2- G,G, G,2 | %6
 B,,2 C,2- C,C, D,2 | D,2 G,,6 | z2 G,,2 G,,2 G,,2- | G,,G,, D,2 D,2 G,,2 | z2 G,,2 G,,2 G,,2- | %11
 G,,G,, D,2 D,2 G,,2 | G,,2 G,,2 z2 E,2 | z2 G,,2 G,,2 G,,2- | G,,G,, D,2 D,2 G,,2- | %15
 G,,2 G,,2 G,,2 G,,2- | G,,6 z2 |] %17

